app/public/dtpr-icons/health.svg

<svg width="36" height="36" viewBox="0 0 36 36" fill="none" xmlns="http://www.w3.org/2000/svg">
<path d="M31.8564 8.8453L19 1.42265C18.3812 1.06538 17.6188 1.06538 17 1.42265L4.14359 8.8453C3.52479 9.20257 3.14359 9.86282 3.14359 10.5774V25.4226C3.14359 26.1372 3.52479 26.7974 4.14359 27.1547L17 34.5774C17.6188 34.9346 18.3812 34.9346 19 34.5774L31.8564 27.1547C32.4752 26.7974 32.8564 26.1372 32.8564 25.4226V10.5774C32.8564 9.86282 32.4752 9.20256 31.8564 8.8453Z" fill="black" stroke="black" stroke-width="2"/>
<mask id="mask0" mask-type="alpha" maskUnits="userSpaceOnUse" x="9" y="9" width="18" height="18">
<path fill-rule="evenodd" clip-rule="evenodd" d="M9 9H26.9999V27H9V9Z" fill="white"/>
</mask>
<g mask="url(#mask0)">
<path fill-rule="evenodd" clip-rule="evenodd" d="M25.7139 15H20.9999V10.286C20.9999 9.576 20.4249 9 19.7139 9H16.2859C15.5749 9 14.9999 9.576 14.9999 10.286V15H10.2859C9.5749 15 8.9999 15.576 8.9999 16.286V19.714C8.9999 20.424 9.5749 21 10.2859 21H14.9999V25.714C14.9999 26.424 15.5749 27 16.2859 27H19.7139C20.4249 27 20.9999 26.424 20.9999 25.714V21H25.7139C26.4249 21 26.9999 20.424 26.9999 19.714V16.286C26.9999 15.576 26.4249 15 25.7139 15Z" fill="white"/>
</g>
</svg>

<svg xmlns="http://www.w3.org/2000/svg" width="36" height="36" fill="none"><path fill="#000" stroke="#000" stroke-width="2" d="M31.856 8.845 19 1.423a2 2 0 0 0-2 0L4.144 8.845a2 2 0 0 0-1 1.732v14.846a2 2 0 0 0 1 1.732L17 34.577a2 2 0 0 0 2 0l12.856-7.422a2 2 0 0 0 1-1.732V10.577a2 2 0 0 0-1-1.732Z"/><mask id="a" width="18" height="18" x="9" y="9" mask-type="alpha" maskUnits="userSpaceOnUse"><path fill="#fff" fill-rule="evenodd" d="M9 9h18v18H9z" clip-rule="evenodd"/></mask><g mask="url(#a)"><path fill="#fff" fill-rule="evenodd" d="M25.714 15H21v-4.714C21 9.576 20.425 9 19.714 9h-3.428C15.575 9 15 9.576 15 10.286V15h-4.714C9.575 15 9 15.576 9 16.286v3.428c0 .71.575 1.286 1.286 1.286H15v4.714c0 .71.575 1.286 1.286 1.286h3.428c.71 0 1.286-.576 1.286-1.286V21h4.714c.71 0 1.286-.576 1.286-1.286v-3.428c0-.71-.575-1.286-1.286-1.286" clip-rule="evenodd"/></g></svg>
